Catalina-light/actions/16/zoom-out-x.svg

<svg xmlns="http://www.w3.org/2000/svg" width="16" height="16" viewBox="0 0 16 16">
 <defs>
  <style id="current-color-scheme" type="text/css">
   .ColorScheme-Text { color:#5c616c; } .ColorScheme-Highlight { color:#5294e2; }
  </style>
 </defs>
 <path style="fill:currentColor" class="ColorScheme-Text" d="M 3.2226562 2 C 2.5527963 2 2.0039062 2.5248 2.0039062 3.1875 L 2.0039062 7 L 4.0039062 7 L 4.0039062 4 L 7.0039062 4 L 7.0039062 2 L 3.2226562 2 z M 8 2 L 8 8 L 14 8 L 14 2 L 8 2 z M 5 8 L 2 11 L 5 14 L 5 12 L 8 12 L 8 10 L 5 10 L 5 8 z M 12.003906 9 L 12.003906 12 L 9.0039062 12 L 9.0039062 14 L 12.785156 14 C 13.455016 14 14.003906 13.4752 14.003906 12.8125 L 14.003906 9 L 12.003906 9 z"/>
</svg>

<svg width="16" height="16" viewBox="0 0 16 16" xmlns="http://www.w3.org/2000/svg">
<defs>
<style id="current-color-scheme" type="text/css">.ColorScheme-Text { color:#5c616c; } .ColorScheme-Highlight { color:#5294e2; }</style>
</defs>
<path class="ColorScheme-Text" d="m3.2227 2c-0.66986 0-1.2188 0.5248-1.2188 1.1875v3.8125h2v-3h3v-2h-3.7812zm4.7773 0v6h6v-6h-6zm-3 6-3 3 3 3v-2h3v-2h-3v-2zm7.0039 1v3h-3v2h3.7812c0.66986 0 1.2188-0.5248 1.2188-1.1875v-3.8125h-2z" fill="#363636"/>
</svg>
